X:1
T:Gaudeamus igitur
T:Gaudeamus igitur
T:arr: Johannes Brahms
T:Tekst kjent siden 1287, først trykt 1781 (Kindleben) 
C:Johannes Brahms
%%score [ 1 2 3 4 ]
L:1/8
Q:1/4=100
M:3/4
K:Eb
V:1 treble-8 nm="T1"
V:2 treble-8 nm="T2"
V:3 bass nm="B1"
V:4 bass nm="B2"
V:1
 e3/2 B/ B2 e2 | c3/2 c/ c2 z2 | d3/2 e/ f2 d2 | (eg) e2 z2 :| d3/2 e/ f2 f2 | g e f2 f2 | %6
w: 1. Gau- de- a- mus|i- gi- tur|Ju- ve- nes dum|su- * mus.|Post ju- cun- dam|ju- ven- tu- tem,|
w: 3. Al- ma ma- ter|flo- re- at,|Quae nos e- du-|ca- * vit.|Ca- ros et com-|mi- li- to- nes,|
 d3/2 e/ f2 f2 | g e f2 f2 | e3/2 d/ c2 (af) | (e4 f2) | g6 | e3/2 d/ c2 (af) | (e4 d2) | %13
w: Post mol- es- tam|sen- ec- tu- tem,|Nos ha- be- bit _|hu- *|mus,|Nos ha- be- bit _|hu- *|
w: Dis- si- tas in|re- gi- o- nes,|Spar- sos con- gre- *|ga- *|vit,|Spar- sos con- gre- *|ga- *|
 e6!fine! |: e3/2 B/ B2 e2 | c3/2 c/ c2 z2 | d3/2 e/ f2 d2 | (eg) e2 z2 :| d3/2 e/ f2 f2 | %19
w: mus.|2. Vi- vat a- ca-|de- mi- a!|Vi- vant pro- fes-|so- * res!|Vi- vat mem- brum|
w: vit.||||||
 g3/2 e/ f2 z2 | d3/2 e/ f2 f2 | g3/2 e/ f2 z2 | e3/2 d/ c2 (af) | (e4 f2) | g6 | e3/2 d/ c2 (af) | %26
w: quod- li- bet,|Vi- vat mem- bra|quae- li- bet,|Sem- per sint in _|flo- *|re,|Sem- per sint in _|
w: |||||||
 (e4 d2) | e6!D.C.! |] %28
w: flo- *|re.|
w: ||
V:2
 B3/2 B/ B2 B2 | c3/2 c/ c2 z2 | B3/2 B/ B2 B2 | B2 B2 z2 :| B3/2 c/ d2 d2 | e e d2 d2 | %6
w: 1. Gau- de- a- mus|i- gi- tur,|Ju- ve- nes dum|su- mus.|Post ju- cun- dam|ju- ven- tu- tem,|
w: 3. Al- ma ma- ter|fo- re- at,|Quae nos e- du-|ca- vit.|Ca- ros et com-|mi- li- to- nes,|
 B3/2 c/ d2 d2 | e e d2 d2 | B3/2 B/ A2 c2 | (B4 d2) | e6 | B3/2 B/ A2 c2 | (B4 A2) | G6 |: %14
w: Post mol- es- tam|sen- ec- tu- tem,|Nos ha- be- bit|hu- *|mus,|Nos ha- be- bit|hu- *|mus.|
w: Dis- si- tas in|re- gi- o- nes,|Spar- sos con- gre-|ga- *|vit,|Spar- sos con- gre-|ga- *|vit.|
 B3/2 B/ B2 B2 | c3/2 c/ c2 z2 | B3/2 B/ B2 B2 | B2 B2 z2 :| B3/2 c/ d2 d2 | e3/2 e/ d2 z2 | %20
w: 2. Vi- vat a- ca-|de- mi- a!|Vi- vant pro- fes-|so- res!|Vi- vat mem- brum|quod- li- bet,|
w: ||||||
 B3/2 c/ d2 d2 | e3/2 e/ d2 z2 | B3/2 B/ A2 c2 | (B4 d2) | e6 | B3/2 B/ A2 c2 | (B4 A2) | G6 |] %28
w: Vi- vat mem- bra|quae- li- bet,|Sem- per sint in|flo- *|re,|Sem- per sint in|flo- *|re.|
w: ||||||||
V:3
 G,3/2 G,/ G,2 G,2 | A,3/2 A,/ A,2 z2 | F,3/2 G,/ A,2 F,2 | (G,B,) G,2 z2 :| B,3/2 B,/ B,2 B,2 | %5
w: 1. Gau- de- a- mus|i- gi- tur|Ju- ve- nes dum|su- * mus.|Post ju- cun- dam|
w: 3. Al- ma ma- ter|flo- re- at,|Quae nos e- du-|ca- * vit.|Ca- ros et com-|
 B, B, B,2 B,2 | F,3/2 F,/ B,2 B,2 | B, B, B,2 B,2 | E,3/2 E,/ E,2 A,2 | (G,4 B,2) | B,6 | %11
w: ju- ven- tu- tem,|Post mol- es- tam|sen- ec- tu- tem,|Nos ha- be- bit|hu- *|mus,|
w: mi- li- to- nes,|Dis- si- tas in|re- gi- o- nes,|Spar- sos con- gre-|ga- *|vit,|
 E,3/2 E,/ E,2 A,2 | (G,4 F,2) | E,6 |: G,3/2 G,/ G,2 G,2 | A,3/2 A,/ A,2 z2 | F,3/2 G,/ A,2 F,2 | %17
w: Nos ha- be- bit|hu- *|mus.|2. Vi- vat a- ca-|de- mi- a!|Vi- vant pro- fes-|
w: Spar- sos con- gre-|ga- *|vit.||||
 (G,B,) G,2 z2 :| B,3/2 B,/ B,2 B,2 | B,3/2 B,/ B,2 z2 | F,3/2 F,/ B,2 B,2 | B,3/2 B,/ B,2 z2 | %22
w: so- * res!|Vi- vat mem- brum|quod- li- bet,|Vi- vat mem- bra|quae- li- bet,|
w: |||||
 E,3/2 E,/ E,2 A,2 | (G,4 B,2) | B,6 | E,3/2 E,/ E,2 A,2 | (G,4 F,2) | E,6 |] %28
w: Sem- per sint in|flo- *|re,|Sem- per sint in|flo- *|re.|
w: ||||||
V:4
 E,3/2 E,/ E,2 E,2 | A,,3/2 A,,/ A,,2 z2 | B,,3/2 B,,/ B,,2 B,,2 | E,2 E,2 z2 :| %4
w: 1. Gau- de- a- mus|i- gi- tur|Ju- ve- nes dum|su- mus.|
w: 3. Al- ma ma- ter|flo- re- at,|Quae nos e- du-|ca- vit.|
 B,,3/2 B,,/ B,,2 B,,2 | E, G, B,2 B,,2 | B,,3/2 B,,/ B,,2 B,,2 | E, G, B,2 B,,2 | %8
w: Post ju- cun- dam|ju- ven- tu- tem,|Post mol- es- tam|sen- ec- tu- tem,|
w: Ca- ros et com-|mi- li- to- nes,|Dis- si- tas in|re- gi- o- nes,|
 G,,3/2 G,,/ A,,2 (F,,A,,) | B,,6 | E,6 | G,,3/2 G,,/ A,,2 (F,,A,,) | B,,6 | [E,,E,]6 |: %14
w: Nos ha- be- bit _|hu-|mus,|Nos ha- be- bit _|hu-|mus.|
w: Spar- sos con- gre- *|ga-|vit,|Spar- sos con- gre- *|ga-|vit.|
 E,3/2 E,/ E,2 E,2 | A,,3/2 A,,/ A,,2 z2 | B,,3/2 B,,/ B,,2 B,,2 | E,2 E,2 z2 :| %18
w: 2. Vi- vat a- ca-|de- mi- a!|Vi- vant pro- fes-|so- res!|
w: ||||
 B,,3/2 B,,/ B,,2 B,,2 | E,3/2 G,/ B,2 z2 | B,,3/2 B,,/ B,,2 B,,2 | E,3/2 G,/ B,2 z2 | %22
w: Vi- vat mem- brum|quod- li- bet,|Vi- vat mem- bra|quae- li- bet,|
w: ||||
 G,,3/2 G,,/ A,,2 (F,,A,,) | B,,6 | E,6 | G,,3/2 G,,/ A,,2 (F,,A,,) | B,,6 | [E,,E,]6 |] %28
w: Sem- per sint in _|flo-|re,|Sem- per sint in _|flo-|re.|
w: ||||||

